static/img/contact.svg

<?xml version="1.0" encoding="UTF-8" standalone="no"?>
<!-- Created with Inkscape (http://www.inkscape.org/) -->

<svg
   xmlns:dc="http://purl.org/dc/elements/1.1/"
   xmlns:cc="http://creativecommons.org/ns#"
   xmlns:rdf="http://www.w3.org/1999/02/22-rdf-syntax-ns#"
   xmlns:svg="http://www.w3.org/2000/svg"
   xmlns="http://www.w3.org/2000/svg"
   xmlns:sodipodi="http://sodipodi.sourceforge.net/DTD/sodipodi-0.dtd"
   xmlns:inkscape="http://www.inkscape.org/namespaces/inkscape"
   width="90"
   height="90.000031"
   id="svg3615"
   version="1.1"
   inkscape:version="0.48.4 r9939"
   sodipodi:docname="contact.svg">
  <defs
     id="defs3617">
    <clipPath
       clipPathUnits="userSpaceOnUse"
       id="clipPath2995-6">
      <path
         style="color:#000000;fill:#ff00ff;fill-opacity:1;fill-rule:nonzero;stroke:none;stroke-width:4;marker:none;visibility:visible;display:inline;overflow:visible;enable-background:accumulate"
         d="m 222,818.36215 0,54 126,0 0,-54 -43.875,0 c -0.0316,0.0521 -0.062,0.1043 -0.0937,0.15625 -2.2906,3.75334 -4.87723,7.16686 -7.875,9.875 -2.99777,2.70814 -6.52444,5 -11.125,5 -4.60056,0 -8.12214,-2.29391 -11.125,-5 -3.00286,-2.70609 -5.60728,-6.12218 -7.90625,-9.875 -0.0318,-0.0519 -0.062,-0.1042 -0.0937,-0.15625 L 222.0001,818.36215 Z"
         id="path2997-4"
         inkscape:connector-curvature="0" />
    </clipPath>
  </defs>
  <sodipodi:namedview
     id="base"
     pagecolor="#ffffff"
     bordercolor="#666666"
     borderopacity="1.0"
     inkscape:pageopacity="0.0"
     inkscape:pageshadow="2"
     inkscape:zoom="7.9580786"
     inkscape:cx="36.190065"
     inkscape:cy="48.918863"
     inkscape:document-units="px"
     inkscape:current-layer="g4271"
     showgrid="true"
     fit-margin-top="0"
     fit-margin-left="0"
     fit-margin-right="0"
     fit-margin-bottom="0"
     inkscape:window-width="1861"
     inkscape:window-height="1056"
     inkscape:window-x="1425"
     inkscape:window-y="24"
     inkscape:window-maximized="1">
    <inkscape:grid
       type="xygrid"
       id="grid2986"
       empspacing="6"
       visible="true"
       enabled="true"
       snapvisiblegridlinesonly="true"
       originx="0px"
       originy="2.6171875e-06px" />
  </sodipodi:namedview>
  <metadata
     id="metadata3620">
    <rdf:RDF>
      <cc:Work
         rdf:about="">
        <dc:format>image/svg+xml</dc:format>
        <dc:type
           rdf:resource="http://purl.org/dc/dcmitype/StillImage" />
        <dc:title />
      </cc:Work>
    </rdf:RDF>
  </metadata>
  <g
     inkscape:label="Layer 1"
     inkscape:groupmode="layer"
     id="layer1"
     transform="translate(1978.2857,336.49495)">
    <g
       id="g4271"
       transform="translate(-2218.2857,-1106.8571)">
      <path
         style="color:#000000;fill:#ffffff;fill-opacity:1;fill-rule:nonzero;stroke:none;stroke-width:2;marker:none;visibility:visible;display:inline;overflow:visible;enable-background:accumulate"
         clip-path="none"
         d="M 30.21875 54.15625 C 11.057821 55.125058 6 61.297631 6 75 L 6 81 C 6 90 6 90 18 90 L 72 90 C 84 90 84 90 84 81 L 84 75 C 84 61.305107 78.947539 55.130228 59.8125 54.15625 C 58.661142 55.560765 57.451922 56.86076 56.15625 58.03125 C 53.15848 60.73939 49.63181 63.03125 45.03125 63.03125 C 40.43069 63.03125 36.90911 60.73734 33.90625 58.03125 C 32.605846 56.859364 31.377261 55.564123 30.21875 54.15625 z "
         transform="translate(240,770.36215)"
         id="rect3461-3-1" />
      <rect
         y="770.36218"
         x="240"
         height="90"
         width="90"
         id="rect4269"
         style="color:#000000;fill:none;stroke:none;stroke-width:4;marker:none;visibility:visible;display:inline;overflow:visible;enable-background:accumulate" />
      <path
         inkscape:transform-center-y="21.408856"
         inkscape:transform-center-x="-0.0067782248"
         id="path3447-0-6"
         d="m 285.00024,770.36215 c -14.99976,-3e-5 -20.99976,6.00003 -20.99976,21.00003 l 0,3 c 0,12 12.03506,33 21.01729,33 8.98223,0 20.98223,-21 20.98223,-33 l 0,-3 c 0,-15 -6,-21 -20.99976,-21.00003 z"
         style="color:#000000;fill:#ffffff;fill-opacity:1;fill-rule:nonzero;stroke:none;stroke-width:4;marker:none;visibility:visible;display:inline;overflow:visible;enable-background:accumulate"
         inkscape:connector-curvature="0"
         sodipodi:nodetypes="zsszssz" />
    </g>
  </g>
  <g
     inkscape:groupmode="layer"
     id="layer2"
     inkscape:label="Clips"
     sodipodi:insensitive="true"
     style="display:none">
    <path
       transform="translate(-240,-770.36215)"
       style="color:#000000;fill:#808080;fill-opacity:1;fill-rule:nonzero;stroke:none;stroke-width:2;marker:none;visibility:visible;display:inline;overflow:visible;enable-background:accumulate"
       d="m 246,851.36218 c 0,9 0,9 12,9 l 54,0 c 12,0 12,0 12,-9 l 0,-6 c 0,-15 -6,-21 -30,-21 l -18,0 C 252,824.36218 246,830.36218 246,845.36218 Z"
       id="rect3461-3-1-5"
       inkscape:connector-curvature="0"
       sodipodi:nodetypes="csscccccc"
       clip-path="url(#clipPath2995-6)" />
    <rect
       y="3.2134991e-05"
       x="0"
       height="90"
       width="90"
       id="rect4269-8"
       style="color:#000000;fill:none;stroke:none;stroke-width:4;marker:none;visibility:visible;display:inline;overflow:visible;enable-background:accumulate" />
    <path
       inkscape:transform-center-y="21.408856"
       inkscape:transform-center-x="-0.0067782248"
       id="path3447-0-6-9"
       d="M 45.00024,-4.8230939e-7 C 30.00048,-3.0482196e-5 24.00048,6.0000295 24.00048,21.00003 l 0,3 c 0,12 12.03506,33 21.01729,33 8.98223,0 20.98223,-21 20.98223,-33 l 0,-3 C 66,6.0000295 60,2.9517803e-5 45.00024,-4.8230939e-7 Z"
       style="color:#000000;fill:#808080;fill-opacity:1;fill-rule:nonzero;stroke:none;stroke-width:4;marker:none;visibility:visible;display:inline;overflow:visible;enable-background:accumulate"
       inkscape:connector-curvature="0"
       sodipodi:nodetypes="zsszssz" />
  </g>
</svg>

<svg xmlns="http://www.w3.org/2000/svg" width="90" height="90"><defs><clipPath><path d="M222 818.362v54h126v-54h-43.875l-.094.156c-2.29 3.754-4.875 7.167-7.873 9.875-2.997 2.71-6.524 5-11.125 5-4.6 0-8.12-2.294-11.124-5-3.003-2.706-5.607-6.122-7.906-9.875-.032-.05-.062-.104-.094-.156H222z" color="#000" fill="#f0f" stroke-width="4" overflow="visible" enable-background="accumulate"/></clipPath></defs><g color="#000"><path d="M30.22 54.156C11.057 55.126 6 61.298 6 75v6c0 9 0 9 12 9h54c12 0 12 0 12-9v-6c0-13.695-5.052-19.87-24.188-20.844-1.15 1.405-2.36 2.705-3.656 3.875-2.998 2.71-6.524 5-11.125 5-4.6 0-8.12-2.292-11.123-5-1.3-1.17-2.53-2.465-3.687-3.873z" fill="#fff" stroke-width="2" overflow="visible" enable-background="accumulate"/><path fill="none" stroke-width="4" overflow="visible" enable-background="accumulate" d="M0 0h90v90H0z"/><path d="M45 0C30 0 24 6 24 21v3c0 12 12.036 33 21.018 33C54 57 66 36 66 24v-3C66 6 60 0 45 0z" fill="#fff" stroke-width="4" overflow="visible" enable-background="accumulate"/></g></svg>
